!!!!SEGMENT: pl-wtm--r-2292_troschel-wilhelm--o-wroccie-jasne-chwile-mlodosci.krn
!!!cenid: 18xx:2254
!!!COM: Troschel, Wilhelm
!!!COM-rismid: pe30024099
!!!CDT: 1823/08/23-1887/03/02
!!!CNT: Polish
!!!OTL: O wróćcie, jasne chwile młodości
!!!PDT:
!!!AGN:
!!!SMS-siglum: PL-Wtm
!!!SMS-shelfmark: R 2292
!!!SMS-shelfwork: W
!!!SMS-variant:
!!!SMS-altvar:
!!!NIFC-rismid: 1001113824
!!!URL-scan: http://repozytorium.nifc.pl/skany/pl-wtm-nut--r2292
!!!ONB-nifc:
!!!AIN: 1 forte 1 vox
!!!key:
**kern	**fing	**kern	**dynam	**kern	**text	**dynam
*part2	*part2	*part2	*part2	*part1	*part1	*part1
*staff3	*staff3	*staff2	*	*staff1	*staff1	*
*Iforte	*	*Iforte	*	*Ivox	*	*
*I"[fp.]	*	*I"[fp.]	*	*I"[Voce]	*	*
*clefF4	*	*clefG2	*	*clefG2	*	*
*k[b-]	*	*k[b-]	*	*k[b-]	*	*
*d:	*	*d:	*	*d:	*	*
*M6/8	*	*M6/8	*	*M6/8	*	*
*>[A,B,B1,B,B2,C]	*	*>[A,B,B1,B,B2,C]	*	*>[A,B,B1,B,B2,C]	*	*
=1	=1	=1	=1	=1	=1	=1
*>A	*	*>A	*	*>A	*	*
*all\right	*	*all\right	*	*all\right	*	*
*	*	*clefF4	*	*	*	*
*^	*	*^	*	*	*	*
*	*2\right	*	*	*	*	*	*	*
!	!	!	!LO:TX:a:t=Moderato	!	!	!	!	!
4r	[2.AA^^\	.	[2.A^^/	4r	p	2.r	.	.
8r	.	.	.	8r	.	.	.	.
4.E/	.	.	.	4.G\	.	.	.	.
=2	=2	=2	=2	=2	=2	=2	=2	=2
4.D#X/	2.AA\]	.	2.A/_	4.F#X\	.	2.r	.	.
4.Dn/	.	.	.	4.Fn\	<	.	.	.
=3	=3	=3	=3	=3	=3	=3	=3	=3
4.C#X/	2.AA\	.	4.A/]	4.E\	.	2.r	.	.
4.E/	.	.	4Bn/	4.G\	[	.	.	.
.	.	.	8c#X/	.	.	.	.	.
=4	=4	=4	=4	=4	=4	=4	=4	=4
4.D/	4.BB-\	.	(4.d/	4.F\	.	2.r	.	.
4.GG\ 4.D	8ryy	.	4f/	4.B-\	>	.	.	.
.	4ryy	.	.	.	.	.	.	.
.	.	.	8e/)	.	.	.	.	.
=5	=5	=5	=5	=5	=5	=5	=5	=5
!	!LO:N:vis=2	!	!	!	!	!	!	!
4.F/	[2.AA\	.	[2.d/	4.A\	.	2.r	.	.
4G/	.	.	.	4B-/	.	.	.	.
8F/	.	.	.	8A/	]	.	.	.
=6	=6	=6	=6	=6	=6	=6	=6	=6
*	*	*	*	*2\right	*	*	*	*
2.E/	2.AA\]	.	4.d/]	2.G\	.	2.r	.	.
.	.	.	4.c#X/	.	.	.	.	.
*v	*v	*	*	*	*	*	*	*
*	*	*v	*v	*	*	*	*
=7	=7	=7	=7	=7	=7	=7
[>2.DD\ [>2.D	.	(8F\L 8d	.	2.r	.	.
.	.	8A\	.	.	.	.
.	.	8d\	.	.	.	.
.	.	8f\	.	.	.	.
.	.	8d\	.	.	.	.
.	.	8A\J)	.	.	.	.
=8	=8	=8	=8	=8	=8	=8
2.DD\] 2.D]	.	(8F\L	.	2.r	.	.
.	.	8A\	.	.	.	.
.	.	8d\	.	.	.	.
.	.	8f\	.	.	.	.
.	.	8d\	.	.	.	.
!	!	!LO:TX:t=P:problem=brak zmiany klucza	!	!	!	!
.	.	8A\J)	.	.	.	.
!!LO:LB:g=original
*	*	*clefG2	*	*	*	*
=9	=9	=9	=9	=9	=9	=9
2.DD\	.	(8F</L	.	[>4a/	O	.
.	.	8A</	.	.	.	.
.	.	8d</J	.	16a/]	.	.
.	.	.	.	32b-/LLL	.	.
.	.	.	.	32a/JJJ	.	.
.	.	8f</L	.	4g#X/	wróć-	.
.	.	8d</	.	.	.	.
.	.	8A</J)	.	8a/	-cie	.
=10	=10	=10	=10	=10	=10	=10
!LO:N:vis=2	!	!	!	!	!	!
2.D\	.	(8F</L	.	4.b-/	jas-	.
.	.	8A</	.	.	.	.
.	.	8d</J	.	.	.	.
.	.	8f</L	.	4.a/	-ne	.
.	.	8d</	.	.	.	.
.	.	8A</J)	.	.	.	.
=11	=11	=11	=11	=11	=11	=11
4.DD/	.	(8A/L	.	4.a/	chwi-	.
.	.	8d/	.	.	.	.
.	.	8f/J)	.	.	.	.
[4.D\	.	(8c/L	.	4dd/	-le	.
.	.	8d/	.	.	.	.
.	.	8f#X/J)	.	8cc/	mło-	.
=12	=12	=12	=12	=12	=12	=12
2.GG/ 2.D]	.	(8c/L	.	4.cc/	-do-	.
.	.	8d/	.	.	.	.
.	.	8f#X/J	.	.	.	.
.	.	8B-/L	.	4.b-/	-ści,	.
.	.	8d/	.	.	.	.
.	.	8g/J)	.	.	.	.
=13	=13	=13	=13	=13	=13	=13
2.GG/ 2.G	.	8r	.	4.b-/	Bo	.
.	.	(8B-/L	.	.	.	.
.	.	8e-X/J	.	.	.	.
.	.	8g/L	.	4b-/	smut-	.
.	.	8e-/	.	.	.	.
.	.	8B-/J)	.	8b-/	-ney	.
=14	=14	=14	=14	=14	=14	=14
!	!	!	!	!LO:TX:t=P:problem=4g 8f poprawione na 4.b-, nieusunięty łuk	!	!
2.AA/	.	8r	.	4.b-/	du-	.
.	.	(8A/L	.	.	.	.
.	.	8d/J	.	.	.	.
!	!	!	!	!LO:TX:t=P:problem=4e 8d poprawione na 4.a, nieusunięty łuk	!	!
.	.	8f/L	.	4.a/	-szy	.
.	.	8d/	.	.	.	.
.	.	8A/J)	.	.	.	.
!!LO:LB:g=original
=15	=15	=15	=15	=15	=15	=15
2.BB-\	.	8r<	.	4.f/	dzi-	.
.	.	8F</L	.	.	.	.
.	.	8d/J	.	.	.	.
.	.	8f/L	.	4f/	-siay	.
.	.	[8d/	.	.	.	.
.	.	8d/J] 8e 8g	.	8g/	po-	.
=16	=16	=16	=16	=16	=16	=16
*^	*	*^	*	*	*	*
8r	2.AA\	.	2.a/	8r	.	4.a/	-trze-	.
8E/L	.	.	.	8c#X\L	.	.	.	.
8D#X/J	.	.	.	8cn\J	.	.	.	.
8E/L	.	.	.	8c#X\L	.	4a/	-ba;	.
8G/	.	.	.	8e\	.	.	.	.
8E/J	.	.	.	8c#\J	.	8r	.	.
*v	*v	*	*	*	*	*	*	*
*	*	*v	*v	*	*	*	*
=17	=17	=17	=17	=17	=17	=17
2.DD\	.	(8F</L	.	[>4a/	Tych	.
.	.	8A</	.	.	.	.
.	.	8d</J	.	16a/]	.	.
.	.	.	.	32b-/LLL	.	.
.	.	.	.	32a/JJJ	.	.
.	.	8f</L	.	4g#X/	pa-	.
.	.	8d</	.	.	.	.
.	.	8A</J)	.	8a/	-ła-	.
=18	=18	=18	=18	=18	=18	=18
.	.	.	.	8qcc/	.	.
2.D\	.	(8F</L	.	4.b-/	-ią-	.
.	.	8A</	.	.	.	.
.	.	8d</J	.	.	.	.
.	.	8f</L	.	4.a/	-cych	.
.	.	8d</	.	.	.	.
.	.	8A</J)	.	.	.	.
=19	=19	=19	=19	=19	=19	=19
4.DD/	.	(8A/L	.	(4a/	o-	.
.	.	8c/	.	.	.	.
.	.	8d/J	.	8dd\)	.	.
[4.D\	.	8f#X/L	.	8ee-X\L	-bięć	.
.	.	8d/	.	8dd\J	.	.
.	.	8c/J)	.	8a/	mi-	.
=20	=20	=20	=20	=20	=20	=20
2.GG/ 2.D]	.	(8c/L	.	4.cc/	-ło-	.
.	.	8e-X/	.	.	.	.
.	.	8f#X/J	.	.	.	.
.	.	8B-/L	.	4b-/	-ści	.
.	.	8d/	.	.	.	.
.	.	8g/J)	.	8r	.	.
!!LO:PB:g=original
=21	=21	=21	=21	=21	=21	=21
!	!	!	!	!	!	!LO:DY:b:rj
2.GG/ 2.G	.	8r	f	4.b-/	I	f
.	.	8B-/L	<	.	.	.
.	.	8e-X/J	.	.	.	.
!	!	!	!	!	!	!LO:HP:b
.	.	8b-/L	.	4b-/	o-	<
.	.	8e-/	.	.	.	.
.	.	8B-/J	[[	8b-/	-gni-	[[
=22	=22	=22	=22	=22	=22	=22
2.GG#X/ 2.D 2.F	.	8r	.	(>4.bn/ 4.dd	-ste-	.
.	.	8Bn/L	.	.	.	.
.	.	8d/J	.	.	.	.
.	.	8b-/L	.	4.d/)	-go	.
.	.	8d/	.	.	.	.
.	.	8B/J	.	.	.	.
=23	=23	=23	=23	=23	=23	=23
*	*	*^	*	*	*	*
4.BB-/	.	8r	4.ryy	.	[4d/	roz-	.
.	.	8d/L	.	.	.	.	.
.	.	8g/J	.	.	16d/]	.	.
.	.	.	.	.	32e/LLL	.	.
.	.	.	.	.	32d/JJJ	.	.
!	!	!	!	!	!	!	!LO:HP:b
4.B-\	.	8r	8ryy	.	4c#X/	-ko-	>
.	.	4g/	8e\L	.	.	.	.
!	!	!LO:TX:b:t=ral - len - tando	!	!	!	!	!
.	.	.	8d\J	.	8d/	-szy	.
*	*	*v	*v	*	*	*	*
=24	=24	=24	=24	=24	=24	=24
4AA\ 4E	.	8c#X/L 8a	.	(>4.e/	nie-	.
.	.	8A/ 8a	.	.	.	.
8r	.	8A/J 8a	.	.	.	.
4r	.	8A/L 8a	.	4a/)	-ba.	]
.	.	8A/ 8a	.	.	.	.
8r	.	8A/J 8a	.	8r	.	.
=25	=25	=25	=25	=25	=25	=25
!	!	!LO:TX:b:t=dolce	!LO:DY:rj	!LO:TX:b:i:t=dolce.	!	!LO:DY:b:rj
2.FF/ 2.F	.	8A/L	p	(>4.a/	Bo	p
.	.	8c/	.	.	.	.
.	.	8f/J	.	.	.	.
.	.	8a/L	.	4b-/	tak	.
.	.	8f/	.	.	.	.
.	.	8c/J	.	8cc/	po-	.
=26	=26	=26	=26	=26	=26	=26
2.CC/ 2.C	.	8B-/L	.	4.dd\	-sę-	.
.	.	8c/	.	.	.	.
.	.	8e/J	.	.	.	.
.	.	8g/L	.	4.e/)	-pnie	.
.	.	8e/	.	.	.	.
.	.	8c/J	.	.	.	.
!!LO:LB:g=original
=27	=27	=27	=27	=27	=27	=27
4.DD/ 4.D	.	8r	.	4.f/	tak	.
.	.	8A/L	.	.	.	.
.	.	8d/J 8f	.	.	.	.
4.GG/	.	8r	.	4a/	nie-	.
.	.	8G/L	.	.	.	.
.	.	8Bn/J 8d 8f	.	8g/	-we-	.
=28	=28	=28	=28	=28	=28	=28
4.CC\ 4.C	.	8r	.	4.g/	-so-	.
.	.	8G/L	.	.	.	.
.	.	8c/J 8e	.	.	.	.
4.AAA/ 4.AA	.	8r	.	4a/	-ło	.
.	.	8c/L	.	.	.	.
.	.	8d/J 8f#X	.	8r	.	.
=29	=29	=29	=29	=29	=29	=29
2.GGG/ 2.GG	.	8r	.	4.b-/	W_od-	.
.	.	(8B-/L	.	.	.	.
.	.	8d/J	.	.	.	.
.	.	8g/L	.	(>4cc/	-lud-	.
.	.	8d/	.	.	.	.
.	.	8B-/J)	.	8b-/	-nym	.
=30	=30	=30	=30	=30	=30	=30
2.BBB-/ 2.BB-	.	8r	.	4ee\	swie-	.
.	.	8G/L	.	.	.	.
.	.	8d/J	.	8dd\)	.	.
.	.	8g/L	.	4.g/	-ćie	.
.	.	8d/	.	.	.	.
.	.	8G/J	.	.	.	.
=31	=31	=31	=31	=31	=31	=31
!	!	!	!	!	!	!LO:HP:b
4.BBBn\ 4.BBn	.	8r	.	4.g/	sa-	>
.	.	8G/L	>	.	.	.
.	.	8d/J 8f	.	.	.	.
.	.	.	.	8qbn/	.	.
4.GG/	.	8r	.	4a/	-mo-	.
.	.	8G/L	.	.	.	.
.	.	8Bn/J 8f	]	8g/	-tnie	]]
=32	=32	=32	=32	=32	=32	=32
2.CC/ 2.C	.	8r	.	(>4.g/	żyć	.
.	.	8G/L	.	.	.	.
.	.	8c/J	.	.	.	.
.	.	8e/L	.	4g#X/)	.	.
.	.	8c/	.	.	.	.
.	.	8G#X/J	.	8r	.	.
!!LO:LB:g=original
=33	=33	=33	=33	=33	=33	=33
2.FF/ 2.F	.	8A/L	.	(4.a/	Gdy	.
.	.	8c/	.	.	.	.
.	.	8f/J	.	.	.	.
.	.	8a/L	.	4b-/	smu-	.
.	.	8f/	.	.	.	.
.	.	8c/J	.	8cc/	-tek	.
=34	=34	=34	=34	=34	=34	=34
2.CC/ 2.C	.	8B-/L	.	4.dd\)	zać-	.
.	.	8c/	.	.	.	.
.	.	8e/J	.	.	.	.
.	.	8g/L	.	4.e/	-mi	.
.	.	8e/	.	.	.	.
.	.	8c/J	.	.	.	.
=35	=35	=35	=35	=35	=35	=35
4.DD/ 4.D	.	8r	.	4.f/	wy-	.
.	.	8A/L	.	.	.	.
.	.	8d/J 8f	.	.	.	.
4.GG/	.	8r	.	4a/	-bla-	.
.	.	8G/L	.	.	.	.
.	.	8Bn/J 8d 8f	.	8g/	-dłe	.
=36	=36	=36	=36	=36	=36	=36
4.CC/ 4.C	.	8r	.	4.g/	czo-	.
.	.	8G/L	.	.	.	.
.	.	8c/J 8e	.	.	.	.
4.AAA/ 4.AA	.	8r	.	4a/	-ło,	.
.	.	8c/L	.	.	.	.
.	.	8d/J 8f#X	.	8r	.	.
=37	=37	=37	=37	=37	=37	=37
!	!	!	!	!LO:TX:b:i:t=marcato	!	!
2.GGG/ 2.GG	.	8r	.	4.b-/	-I	.
.	.	8B-/L	.	.	.	.
.	.	8e-X/J	.	.	.	.
.	.	8g/L	.	4g/	mło-	.
.	.	8e-/	.	.	.	.
.	.	8B-/J	.	8e-X/	-de	.
=38	=38	=38	=38	=38	=38	=38
2.AAA/ 2.AA	.	8r	.	4.b-^^/	ser-	.
.	.	8A/L	.	.	.	.
.	.	8d/J	.	.	.	.
.	.	8f/L	.	4a/	-ce	.
.	.	8d/	.	.	.	.
.	.	8A/J	.	8r	.	.
!!LO:PB:g=original
=39	=39	=39	=39	=39	=39	=39
*	*	*^	*	*	*	*
*	*	*	*^	*	*	*	*
!	!	!LO:TX:a:t=morendo	!	!	!	!	!	!
!	!	!LO:TX:b:t=morendo	!	!	!LO:DY:rj	!	!	!
4.BBB-/	.	4.g/	8r	4.G\	p	4.g/	prze-	.
.	.	.	8d\L	.	.	.	.	.
.	.	.	[8d\J	.	.	.	.	.
4.BB-/	.	4f/	8d\]	4F\	.	4f/	-sta-	.
.	.	.	4d\	.	.	.	.	.
.	.	8g/	.	8G\	.	8g/	-ie	.
*	*	*	*v	*v	*	*	*	*
=40	=40	=40	=40	=40	=40	=40	=40
*^	*	*	*	*	*	*	*
!	!	!	!	!	!LO:DY:t=pp.	!	!	!
8E/	[2.AA^^\	.	[2.a^^/	8c#X\	pp	4.a/	bić.	.
8r	.	.	.	8r	.	.	.	.
!	!	!	!LO:TX:b:t=rall - len tan - do	!	!	!	!	!
(8F/	.	.	.	(8d/	.	.	.	.
16E/)	.	.	.	16c#X/)	.	4r	.	.
16r	.	.	.	16r	.	.	.	.
8r	.	.	.	8r	.	.	.	.
(8A/	.	.	.	(8f/	.	8r	.	.
=41	=41	=41	=41	=41	=41	=41	=41	=41
16G/)	2.AA\_	.	2.a/_	16e/)	.	2.r	.	.
16r	.	.	.	16r	.	.	.	.
8r	.	.	.	8r	.	.	.	.
((8F/	.	.	.	(8d/	.	.	.	.
16E/))	.	.	.	16c#X/)	.	.	.	.
16r	.	.	.	16r	.	.	.	.
8r	.	.	.	8r	.	.	.	.
(8D/	.	.	.	(<8B-/	.	.	.	.
=42	=42	=42	=42	=42	=42	=42	=42	=42
4C#X/)	4AA\]	.	4a/]	4A\)	.	2.r	.	.
8r	2ryy	.	8a/	8r	.	.	.	.
4r	.	.	4a/	4ryy	.	.	.	.
8r	.	.	8b-/	8ryy	.	.	.	.
*v	*v	*	*	*	*	*	*	*
*	*	*v	*v	*	*	*	*
=43!|:	=43!|:	=43!|:	=43!|:	=43!|:	=43!|:	=43!|:
*>B	*	*>B	*	*>B	*	*
*ped	*below	*	*	*	*	*
!	!	!LO:TX:b:t=a Tempo	!	!	!	!LO:DY:b:rj
(8CC/L	5	4.e/ 4.b- 4.cc	ff	4.cc\	O	ff
8C/	5	.	.	.	.	.
8G/J	2	.	.	.	.	.
.	.	8qqee/	.	8qee/	.	.
8c\L	.	4e/ 4b- 4dd	.	(>4dd\	wróć-	.
8G\	.	.	.	.	.	.
8C\J)	.	8e/ 8b- 8cc	.	8cc\	-cie	.
*Xped	*	*	*	*	*	*
=44	=44	=44	=44	=44	=44	=44
*ped	*	*	*	*	*	*
(8FF/L	.	4.f/ 4.a 4.ff	.	4.ff\	Zło-	.
8C/	.	.	.	.	.	.
8F/J	.	.	.	.	.	.
8c\L	.	4.f/ 4.a	.	4.a/)	-te	.
8A\	.	.	.	.	.	.
*Xped	*	*	*	*	*	*
8F\J)	.	.	.	.	.	.
!!LO:LB:g=original
=45	=45	=45	=45	=45	=45	=45
8C\L	.	4e/ 4g	.	(4g/	chwi-	.
8E\	.	.	.	.	.	.
8B-\J	.	8f/ 8a	.	8a/)	.	.
8c\L	.	4g/ 4b-	.	4b-/	-le	.
8B-\	.	.	.	.	.	.
8E\J	.	8g#X/ 8bn	.	8bn/	ma-	.
=46	=46	=46	=46	=46	=46	=46
*ped	*	*	*	*	*	*
!	!	!	!	!	!	!LO:HP:b
8FF\L	.	4.g#X/ 4.dd	>	4.dd\	-rze-	>
8F\	.	.	.	.	.	.
*Xped	*	*	*	*	*	*
8Bn\J	.	.	.	.	.	.
8F\L	.	4.a/ 4.cc	]]	4.cc\	-nia,	]]
8A\	.	.	.	.	.	.
8c\J	.	.	.	.	.	.
=47	=47	=47	=47	=47	=47	=47
!	!	!	!	!LO:TX:b:i:t=dolce	!	!LO:DY:b:rj
2.BB-/ 2.B-	.	8r	p	[>4dd\	Cza-	p
.	.	8d/L 8f 8b-	.	.	.	.
.	.	8d/J 8f 8b-	.	(>16dd\]	.	.
.	.	.	.	32ee\LLL	.	.
.	.	.	.	32dd\JJJ	.	.
.	.	8d/L 8f 8b-	.	4cc#X\	-row-	.
.	.	8d/ 8f 8b-	.	.	.	.
.	.	8d/J 8f 8b-	.	8dd\)	-nym	.
=48	=48	=48	=48	=48	=48	=48
2.AA/ 2.A	.	8r	.	4.dd\	wian-	.
.	.	8c/L 8f 8cc	.	.	.	.
.	.	8c/J 8f 8cc	.	.	.	.
.	.	8c/L 8f 8cc	.	4.cc\	-kiem	.
.	.	8c/ 8f 8cc	.	.	.	.
.	.	8c/J 8f 8cc	.	.	.	.
=49	=49	=49	=49	=49	=49	=49
4.GG/ 4.G	.	8r	.	(4.g/	u-	.
.	.	8c/L 8e 8b-	.	.	.	.
.	.	8c/J 8e 8b-	.	.	.	.
4.CC/ 4.C	.	8r	.	4dd\	-stróy-	.
.	.	8B-/L 8e 8g	.	.	.	.
.	.	8B-/J 8e 8g	.	8cc\)	-cie	.
!!LO:LB:g=original
=50	=50	=50	=50	=50	=50	=50
2.FF/ 2.F	.	8r	.	4.a/	skroń.	.
.	.	8A/L 8c 8f	.	.	.	.
.	.	8A/J 8c 8f	.	.	.	.
.	.	8A/L 8c 8f	.	4r	.	.
.	.	8A/ 8c 8f	.	.	.	.
.	.	8A/J 8c 8f	.	8r	.	.
=51	=51	=51	=51	=51	=51	=51
*	*	*	*^	*	*	*
*	*	*	*	*	*	*	*^
*ped	*	*	*	*	*	*	*	*
4.CC#X/ 4.C#X	.	8r	.	.	4.a/	Niech	.	.
.	.	8A/L 8e 8g	.	.	.	.	.	.
!	!	!LO:TX:b:t=cres cen do:ext=s:problem=dynamics with extention lines	!LO:HP:t=cres cen do	!	!	!	!	!
.	.	8A/J 8e 8g	<	.	.	.	.	.
!	!	!	!	!	!LO:TX:b:t=cres cen do:ext=c:problem=dynamics with extention lines	!	!LO:HP:b:t=cres - cen - do	!
.	.	.	.	.	8qcc/	.	<	.
4.AAA/ 4.AA	.	8r	.	.	4b-/	pierś	.	.
.	.	8A/L 8c#X 8g	.	.	.	.	.	.
*Xped	*	*	*	*	*	*	*	*
.	.	8A/J 8c# 8g	.	.	8a/	mą	.	.
=52	=52	=52	=52	=52	=52	=52	=52	=52
4.DD/ 4.D	.	8r	.	.	4.ee\	wzru-	.	.
.	.	8A/L 8d 8f	.	.	.	.	.	.
.	.	8A/J 8d 8f	.	.	.	.	.	.
4.AAA/ 4.AA	.	8r	.	.	4.dd\	-szą	.	.
.	.	8A/L 8d 8f	.	.	.	.	.	.
.	.	8A/J 8d 8f	.	.	.	.	.	.
=53	=53	=53	=53	=53	=53	=53	=53	=53
*	*	*	*	*	*^	*	*	*
!	!	!	!	!	!	!	!	!	!LO:DY:b:rj
4.EE/ 4.E	.	8r	.	f	4.a/	4.ryy	u-	.	f
.	.	8A/L 8c#X 8g	.	.	.	.	.	.	.
.	.	8A/J 8c# 8g	.	.	.	.	.	.	.
4.AAA/ 4.AA	.	8r	.	.	8ee/L	4ee\	-czu-	.	.
.	.	8A/L 8c# 8g	.	.	8gg/J	.	.	.	.
.	.	8A/J 8c# 8g	[	.	8ff\	8ryy	-cia	.	.
*	*	*	*v	*v	*	*	*	*	*
*	*	*	*	*v	*v	*	*	*
=54	=54	=54	=54	=54	=54	=54	=54
4.DD/ 4.D	.	8r	.	4.ee\	thnie-	[	.
.	.	8A/L 8d 8f	.	.	.	.	.
.	.	8A/J 8d 8f	.	.	.	.	.
4.DD/ 4.D	.	8r	.	4dd\	-nia	.	.
.	.	8A/L 8d 8f	.	.	.	.	.
!	!	!LO:TX:b:t=V.S.	!	!LO:TX:b:t=V.S.	!	!	!
.	.	8A/J 8d 8f	.	8r	.	.	.
*	*	*	*	*	*	*v	*v
!!LO:PB:g=original
=55	=55	=55	=55	=55	=55	=55
4.GG/	.	8r	.	4.dd\	Du-	.
.	.	8B-/L 8d 8g	.	.	.	.
.	.	8B-/J 8d 8g	.	.	.	.
4.GGG/	.	8r	.	4cc\	-szę	.
.	.	8B-/L 8d 8g	.	.	.	.
.	.	8B-/J 8d 8g	.	8b-\	u-	.
=56	=56	=56	=56	=56	=56	=56
2.AAA/ 2.AA	.	8r	.	4.b-/	-po-	.
.	.	8A/L 8d 8f	.	.	.	.
.	.	8A/J 8d 8f	.	.	.	.
.	.	8A/L 8d 8f	.	4a/	-i	.
.	.	8A/ 8d 8f	>	.	.	.
.	.	8A/J 8d 8f	.	8r	.	.
=57	=57	=57	=57	=57	=57	=57
!LO:TX:a:t=Imo	!	!LO:TX:a:t=Imo	!	!LO:TX:a:t=Imo	!	!
*>B1	*	*>B1	*	*>B1	*	*
!	!	!	!	!LO:TX:b:t=rall - len tan - do:ext1=c:ext2=s:problem=text with extention lines	!	!
2.BBB-/ 2.BB-	.	8r	.	[>4g/	Nie-	>
.	.	8G/L 8d 8g	.	.	.	.
!	!	!LO:TX:b:i:t=rallentando	!	!	!	!
.	.	8G/J 8d 8g	]	16g/]	.	.
.	.	.	.	32a/LLL	.	.
.	.	.	.	32g/JJJ	.	.
.	.	8F/L 8d 8f	.	4f/	-biań-	]
.	.	8F/ 8d 8f	.	.	.	.
.	.	8G/J 8d 8g	.	8g/	-ska	.
=58	=58	=58	=58	=58	=58	=58
4.AAA/ 4.AA	.	4.A/ 4.c#X 4.a	.	[>4.a/	woń	.
4r	.	4r	.	(<4a/]	.	.
8r	.	8r	.	8cc/)	.	.
=59:|!	=59:|!	=59:|!	=59:|!	=59:|!	=59:|!	=59:|!
!LO:TX:a:t=IIdo	!	!LO:TX:a:t=IIdo	!	!LO:TX:a:t=IIdo	!	!
*>B2	*	*>B2	*	*>B2	*	*
!	!	!LO:TX:b:t=rall.	!	!LO:TX:b:i:t=rallentando	!	!
4.AAA/ 4.AA	.	8r	>	4.a/	Nie-	>
.	.	8G/L 8A 8c#X 8e	.	.	.	.
.	.	8G/J 8A 8c# 8e	]	.	.	.
.	.	.	.	8qqcc/	.	.
4.AAA/ 4.AA	.	8r	.	(>4b-/	-biań-	.
.	.	8E/L 8G 8c#X	.	.	.	.
.	.	8E/J 8G 8c#X	.	8a/)	-ska	]]
*	*	*clefF4	*	*	*	*
=60	=60	=60	=60	=60	=60	=60
*^	*	*	*	*	*	*
4.AA/	2.DD\	.	8r	p	4.d/	woń.	.
!	!	!	!LO:TX:b:t=a tempo	!	!	!	!
.	.	.	8D/L 8F 8A	.	.	.	.
.	.	.	8D/J 8F 8A	.	.	.	.
4.BB-^^/	.	.	8r	.	4r	.	.
.	.	.	8E/L 8G 8c#X	.	.	.	.
.	.	.	8E/J 8G 8c#X	.	8r	.	.
!!LO:LB:g=original
=61	=61	=61	=61	=61	=61	=61	=61
*>C	*>C	*	*>C	*	*>C	*	*
4.AA/	2.DD\	.	8r	.	2.ryy	.	.
!	!	!	!	!LO:HP:t=cres	!	!	!
.	.	.	8F/L 8A 8d	<	.	.	.
.	.	.	8F/J 8A 8d	.	.	.	.
4.BB-^^/	.	.	8r	.	.	.	.
.	.	.	8A-X\L 8d 8f	<	.	.	.
.	.	.	8A-\J 8d 8f	.	.	.	.
=62	=62	=62	=62	=62	=62-	=62	=62
4.AA/	2.DD\	.	8r	.	2.ryy	.	.
.	.	.	8G\L 8c#X 8e	.	.	.	.
.	.	.	8G\J 8c# 8e	.	.	.	.
4.BB-^^/	.	.	8r	[	.	.	.
.	.	.	8E\L 8G 8c#	.	.	.	.
.	.	.	8E\J 8G 8c#	.	.	.	.
=63	=63	=63	=63	=63	=63-	=63-	=63
*	*	*	*	*^	*	*	*
4.AA/	2.DD\	.	8r	.	.	2.ryy	.	.
.	.	.	8D\L 8F 8d	.	.	.	.	.
.	.	.	8D\J 8F 8d	>	.	.	.	.
4.BB-^^/	.	.	8r	.	.	.	.	.
.	.	.	8D/L 8G	.	.	.	.	.
.	.	.	8D/J 8G	.	.	.	.	.
=64	=64	=64	=64	=64	=64	=64-	=64	=64
4.AA/	2.DD\	.	8r	.	pp	2.ryy	.	.
.	.	.	8D/L 8F	.	.	.	.	.
.	.	.	8D/J 8F	.	.	.	.	.
4.BB-^^/	.	.	8r	]	.	.	.	.
.	.	.	8D/L 8E	.	.	.	.	.
.	.	.	8D/J 8E	.	.	.	.	.
*	*	*	*	*v	*v	*	*	*
=65	=65	=65	=65	=65	=65-	=65	=65
!	!	!	!	!LO:DY:t=ppp.	!	!	!
4.AA/	2.DD\	.	[>2.D/ [>2.F	ppp	2.ryy	.	.
4.BB-^^/	.	.	.	.	.	.	.
=66	=66	=66	=66	=66	=66-	=66	=66
[>2.AA/	[>2.DD\	.	2.D/_> 2.F_>	.	2.ryy	.	.
=67	=67	=67	=67	=67	=67-	=67	=67
4.AA/]	4.DD\]	.	4.D/] 4.F]	.	2.ryy	.	.
4r;>	4ryy	.	4r;>	.	.	.	.
8r	8ryy	.	8r	.	.	.	.
*v	*v	*	*	*	*	*	*
==	==	==	==	==	==-	==
*-	*-	*-	*-	*-	*-	*-
!!!system-decoration: s1{(s2,s3)}
!!!RDF**kern: < = below
!!!RDF**kern: > = above
!!!ENC: Marta Chmielewska
!!!END: 2021-06-08
!!!ENC: Katarzyna Serwa
!!!END: 2021-05-25
